!!!COM: Richard Strauss
!!!CNT: Deutscher
!!!TXO: Deutsche 
!!!OTL: Nichts
!!!OPS: Opus 10
!!!ONM: No. 2
!!!LYR: Hermann v. Gilm
!!!ENC: Brian Bice
!!!YOR: Lieder, Complete Edition, vol. 1
!!!ODT: 1885/
!!NB: Vocal melody and text only encoded.
**kern	**silbe
*clefG2	*
*k[f#c#g#]	*
*M3/4	*
=8	=8
4r	.
4r	.
{[4e	{Nen-
=9	=9
8.e]	|
16f#	-nen
8e	soll
8cc#	ich,
8r	.
8b	sagt
=10	=10
[2ee	ihr,
8ee]	mei-
8ee	-ne
=11	=11
4.aa	Ko2-
8ff#	-ni-
8ee	-gin
8b	im
=12	=12
8.cc#	Lie-
16dd	-der-
4ee}	-reich?}
4r	.
=13	=13
{4ff#	{To-
4ee	-ren,
8cc#	die
8cc#	ihr
=14	=14
4g#	seid,
8r	.
8ee	ich
8dd#	ken-
8cc#	-ne
=15	=15
8b	sie
8a	am
8g#	we-
8f#	-nig-
8.e	-sten
16g#	von
=16	=16
4f#}	euch.}
4r	.
4r	.
=20	=20
{(2e	{Fragt
4e	mich
=21	=21
2a	nach
4b	der
=22	=22
2cc#	Au-
4b	-gen
=23	=23
2ee	Far-
4a)}	-be,}
=24	=24
{(2ff#	{fragt
4ee	mich
=25	=25
2dd	nach
4cc#	der
=26	=26
2b	Stim-
(8dd	-me
8cc#)	|
=27	=27
2b)}	Ton,}
{8e	{fragt
8e	nach
=28	=28
[2a	Gang
8a]	|
8e	und
=29	=29
[4b	Tanz
8b]	|
8e	und
([4cc#	Hal-
=30	=30
8cc#]	|
8a)	|
4e}	-tung,}
4r	.
=31	=31
{4cc#	{ach,
8r	.
8a	und
8g#	was
8f#	weiss
=32	=32
4.ff#	ich
8cc#	da-
4cc#}	-von!}
=36	=36
4r	.
{4g#	{Ist
4g#	die
=37	=37
2cc#	Son-
4cc#	-ne
=38	=38
(4cc#	nicht
4ee#)}	|}
{4dd#	{die
=39	=39
2.cc#	Quel-
=40	=40
4b#	-le
4b#	al-
4cc#	-les
=41	=41
2dd#	Le-
4dd#	-bens,
=42	=42
2ee#	al-
4ee#	-les
=43	=43
[2.ff#	Lichts?
=44	=44
4ff#]}	|}
4r	.
4r	.
=45	=45
4r	.
{4.a	{und
8a	was
=46	=46
(8a	wis-
4b)	|
8cc#	-sen
8dd	von
8ee	der-
=47	=47
(4.ff#	-sel-
8dd)	|
4a}	-ben}
=48	=48
4r	.
4r	.
{4b	{ich
=49	=49
8r	.
8b	und
4dd	ihr
8r	.
8dd	und
=50	=50
4ff#	al-
4b}	-le}
4r	.
=53	=53
4r	.
4r	.
{4ee	{nichts,
=54	=54
4r	.
4aa}	nichts.}
4r	.
*-	*-
